humanity-icon-theme/Humanity/animations/22/brasero-disc-05.svg

<?xml version="1.0" encoding="UTF-8" standalone="no"?>
<!-- Created with Inkscape (http://www.inkscape.org/) -->
<svg
   xmlns:svg="http://www.w3.org/2000/svg"
   xmlns="http://www.w3.org/2000/svg"
   xmlns:xlink="http://www.w3.org/1999/xlink"
   version="1.0"
   width="22"
   height="22"
   id="svg3236">
  <defs
     id="defs3238">
    <linearGradient
       x1="35.007519"
       y1="23.178743"
       x2="35.007519"
       y2="4.9945626"
       id="linearGradient2460"
       xlink:href="#linearGradient3587-6-5"
       gradientUnits="userSpaceOnUse"
       gradientTransform="translate(-24.785715,-2.035714)" />
    <linearGradient
       id="linearGradient3587-6-5">
      <stop
         id="stop3589-9-2"
         style="stop-color:#000000;stop-opacity:1"
         offset="0" />
      <stop
         id="stop3591-7-4"
         style="stop-color:#363636;stop-opacity:1"
         offset="1" />
    </linearGradient>
    <linearGradient
       x1="15.669166"
       y1="-2.6219723"
       x2="15.669166"
       y2="11.969362"
       id="linearGradient2449"
       xlink:href="#linearGradient3587-6-5"
       gradientUnits="userSpaceOnUse"
       gradientTransform="matrix(0.9302326,0,0,1.2359551,-10.575969,6.1536003)" />
    <linearGradient
       x1="15.669166"
       y1="-2.6219723"
       x2="15.669166"
       y2="11.969362"
       id="linearGradient2390"
       xlink:href="#linearGradient3587-6-5"
       gradientUnits="userSpaceOnUse"
       gradientTransform="matrix(0.9302326,0,0,1.2359551,-11.575969,5.1536003)" />
    <linearGradient
       x1="35.007519"
       y1="23.178743"
       x2="35.007519"
       y2="4.9945626"
       id="linearGradient2393"
       xlink:href="#linearGradient3587-6-5"
       gradientUnits="userSpaceOnUse"
       gradientTransform="translate(-25.785715,-3.035714)" />
  </defs>
  <path
     d="M 11,4 C 6.5840001,4 2.9999998,7.5840001 3,12 C 3,16.416 6.5840002,20 11,20 C 15.416,20 19,16.416 19,12 C 19,7.5840001 15.416,4.0000002 11,4 z M 11,9 C 12.656,9 14,10.344 14,12 C 14,13.656 12.656,15 11,15 C 9.344,15 8,13.656 8,12 C 8.0000001,10.344 9.344,9 11,9 z"
     id="path3229"
     style="opacity:0.6;fill:#ffffff;fill-opacity:1;fill-rule:evenodd;stroke:none;stroke-width:1;stroke-linecap:butt;stroke-linejoin:miter;marker:none;marker-start:none;marker-mid:none;marker-end:none;stroke-miterlimit:4;stroke-dasharray:none;stroke-dashoffset:0;stroke-opacity:1;visibility:visible;display:inline;overflow:visible;enable-background:accumulate" />
  <path
     d="M 11,3 C 11.404739,3 11.800153,3.0369225 12.1875,3.09375 C 11.801845,3.0363214 11.402435,3 11,3 z M 11,3 C 6.5840001,3 2.9999998,6.5840001 3,11 C 3,15.416 6.5840002,19 11,19 C 15.416,19 19,15.416 19,11 C 19,9.221745 18.420128,7.5787313 17.4375,6.25 C 17.420304,6.2267472 17.392441,6.2105592 17.375,6.1875 C 17.229864,5.9956143 17.067747,5.8028593 16.90625,5.625 C 15.975708,4.6001809 14.780485,3.8092257 13.4375,3.375 L 11.84375,8.15625 C 12.473839,8.3441573 13.023235,8.7024725 13.40625,9.21875 C 13.776386,9.717669 14,10.331512 14,11 C 14,12.656 12.656,14 11,14 C 9.344,14 8,12.656 8,11 C 8.0000001,9.344 9.344,8 11,8 L 11,3 z"
     id="path3170"
     style="opacity:0.41999996;fill:url(#linearGradient2393);fill-opacity:1;fill-rule:evenodd;stroke:none;stroke-width:1;stroke-linecap:butt;stroke-linejoin:miter;marker:none;marker-start:none;marker-mid:none;marker-end:none;stroke-miterlimit:4;stroke-dasharray:none;stroke-dashoffset:0;stroke-opacity:1;visibility:visible;display:inline;overflow:visible;enable-background:accumulate" />
  <path
     d="M 11,3 L 11,8 C 11.295765,8 11.574348,8.075908 11.84375,8.15625 L 13.4375,3.375 C 12.667155,3.1279913 11.851831,3 11,3 z"
     id="path3288"
     style="opacity:0.7;fill:url(#linearGradient2390);fill-opacity:1;fill-rule:nonzero;stroke:none;stroke-width:1;stroke-linecap:butt;stroke-linejoin:miter;marker:none;marker-start:none;marker-mid:none;marker-end:none;stroke-miterlimit:4;stroke-dasharray:none;stroke-dashoffset:0;stroke-opacity:1;visibility:visible;display:inline;overflow:visible;enable-background:accumulate" />
</svg>

<?xml version="1.0" encoding="UTF-8" standalone="no"?>
<!-- Created with Inkscape (http://www.inkscape.org/) -->
<svg id="svg3236" xmlns="http://www.w3.org/2000/svg" height="22" width="22" version="1.0" xmlns:xlink="http://www.w3.org/1999/xlink">
 <defs id="defs3238">
  <linearGradient id="linearGradient3587-6-5">
   <stop id="stop3589-9-2" offset="0"/>
   <stop id="stop3591-7-4" style="stop-color:#363636" offset="1"/>
  </linearGradient>
  <linearGradient id="linearGradient2390" y2="11.969" xlink:href="#linearGradient3587-6-5" gradientUnits="userSpaceOnUse" x2="15.669" gradientTransform="matrix(.93023 0 0 1.236 -11.576 5.1536)" y1="-2.622" x1="15.669"/>
  <linearGradient id="linearGradient2393" y2="4.9946" xlink:href="#linearGradient3587-6-5" gradientUnits="userSpaceOnUse" x2="35.008" gradientTransform="translate(-25.786 -3.0357)" y1="23.179" x1="35.008"/>
 </defs>
 <path id="path3229" style="opacity:.6;fill-rule:evenodd;fill:#fff" d="m11 4c-4.416 0-8 3.584-8 8s3.584 8 8 8 8-3.584 8-8-3.584-8-8-8zm0 5c1.656 0 3 1.344 3 3s-1.344 3-3 3-3-1.344-3-3 1.344-3 3-3z"/>
 <path id="path3170" style="opacity:0.42;fill-rule:evenodd;fill:url(#linearGradient2393)" d="m11 3c0.405 0 0.8 0.0369 1.188 0.0938-0.386-0.0575-0.786-0.0938-1.188-0.0938zc-4.416 0-8 3.584-8 8s3.584 8 8 8 8-3.584 8-8c0-1.7783-0.58-3.4213-1.562-4.75-0.018-0.0233-0.046-0.0394-0.063-0.0625-0.145-0.1919-0.307-0.3846-0.469-0.5625-0.93-1.0248-2.126-1.8158-3.468-2.25l-1.594 4.7812c0.63 0.188 1.179 0.5463 1.562 1.0626 0.37 0.4989 0.594 1.1132 0.594 1.7812 0 1.656-1.344 3-3 3s-3-1.344-3-3 1.344-3 3-3v-5z"/>
 <path id="path3288" style="opacity:.7;fill:url(#linearGradient2390)" d="m11 3v5c0.296 0 0.574 0.0759 0.844 0.1562l1.594-4.7812c-0.771-0.247-1.586-0.375-2.438-0.375z"/>
</svg>
